X: 6655
T: Ceilidh At Alexandra's
R: jig
M: 6/8
K: Dmajor
|:A|Aee e2 c|efe dcB|Aee fdd|ecc dBB|
Aee e2 c|efe dcB|AAA ABc|dcB A2:|
|:e|Aaa a2 A|efe dcB|Aaa fdd|ecc dBB|
Aaa a2 A|efe dcB|AAA ABc|dcB A2:|

